src/16/actions/transform-affect-stroke.svg

<svg xmlns="http://www.w3.org/2000/svg" width="16" height="16" viewBox="0 0 16 16">
 <defs>
  <style id="current-color-scheme" type="text/css">
   .ColorScheme-Text { color:#565656; } .ColorScheme-Highlight { color:#5294e2; }
  </style>
 </defs>
 <path style="fill:currentColor" class="ColorScheme-Text" d="M 2.015625 2 L 2.015625 4.0605469 L 2.9863281 4.0605469 L 12.029297 4.0605469 L 12.029297 7.0195312 L 12.029297 8.046875 L 13.96875 8.046875 L 13.96875 7.0195312 L 13.96875 2 L 2.9863281 2 L 2.015625 2 z M 2 6.0039062 L 2 7.0351562 L 2.484375 7.0351562 L 9.0097656 7.0351562 L 9.0097656 8.515625 L 9.0097656 9.0292969 L 9.9785156 9.0292969 L 9.9785156 8.515625 L 9.9785156 6.0039062 L 2.484375 6.0039062 L 2 6.0039062 z M 10.996094 9.0136719 L 10.996094 11.007812 L 8.9941406 11.007812 L 8.9941406 12.005859 L 10.996094 12.005859 L 10.996094 14 L 14 11.507812 L 10.996094 9.0136719 z M 3.9863281 10.992188 L 3.9863281 12.023438 L 4.9882812 12.023438 L 4.9882812 10.992188 L 3.9863281 10.992188 z M 6.0058594 10.992188 L 6.0058594 12.023438 L 6.4902344 12.023438 L 7.4921875 12.023438 L 7.9765625 12.023438 L 7.9765625 10.992188 L 7.4921875 10.992188 L 6.4902344 10.992188 L 6.0058594 10.992188 z"/>
</svg>

<svg xmlns="http://www.w3.org/2000/svg" width="16" height="16"><defs><style id="current-color-scheme" type="text/css"></style></defs><path d="M2.016 2v2.06h10.013v3.987h1.94V2H2.016zM2 6.004v1.031h7.01V9.03h.969V6.004H2zm8.996 3.01v1.994H8.994v.998h2.002V14L14 11.508l-3.004-2.494zm-7.01 1.978v1.031h1.002v-1.03H3.986zm2.02 0v1.031h1.971v-1.03H6.006z" fill="currentColor" color="#565656"/></svg>
